X:1806
T:Shane O'Neill's March
M:C
L:1/8
B:O'Neill's 1806
N:"collected by J. O'Neill"
Z:"Transcribed by Bob Safranek, rjs@gsp.org"
K:G
GA|B2 BA   B2 3Bcd|B2 BA B2 AG|Bdge dBAG|A2 AB A2 GA|
B2 BA   B2 B/c/d/c/|B2 BA B2 AG|Bdge dBAB|G2 GA G2    :|
|:ef|g2 fag e2   ag|fefd   B2 G/A/B/c/|d3 e dBAG|g2 ga g2 3fga||
e2 3efg d2 3efg|dBAG   A2 Bd|efage dBAB|G2 GA G2 :|
